synths/sFLOW.svg

<svg width="42" height="42" viewBox="0 0 42 42" fill="none" xmlns="http://www.w3.org/2000/svg">
<g clip-path="url(#clip0_7277_57922)">
<mask id="mask0_7277_57922" style="mask-type:alpha" maskUnits="userSpaceOnUse" x="0" y="0" width="42" height="42">
<circle cx="21" cy="21" r="21" fill="url(#paint0_linear_7277_57922)"/>
</mask>
<g mask="url(#mask0_7277_57922)">
<circle cx="21" cy="21" r="21" fill="#34EDB3"/>
<circle cx="21" cy="21" r="18.2" fill="white"/>
</g>
<circle cx="21" cy="21" r="16.1" fill="#06061B"/>
<g clip-path="url(#clip1_7277_57922)">
<g clip-path="url(#clip2_7277_57922)">
<path d="M21 37.2676C29.9843 37.2676 37.2676 29.9844 37.2676 21C37.2676 12.0157 29.9843 4.73242 21 4.73242C12.0156 4.73242 4.73239 12.0157 4.73239 21C4.73239 29.9844 12.0156 37.2676 21 37.2676Z" fill="#00EF8B"/>
<path d="M28.1252 18.4623H23.5378V23.0497H28.1252V18.4623Z" fill="white"/>
<path d="M18.9503 24.7741C18.9503 25.7176 18.1694 26.4985 17.2259 26.4985C16.2824 26.4985 15.5015 25.7176 15.5015 24.7741C15.5015 23.8306 16.2824 23.0497 17.2259 23.0497H18.9503V18.4623H17.2259C13.7446 18.4623 10.9141 21.2928 10.9141 24.7741C10.9141 28.2554 13.7446 31.0859 17.2259 31.0859C20.7072 31.0859 23.5377 28.2554 23.5377 24.7741V23.0497H18.9503V24.7741Z" fill="white"/>
<path d="M25.2621 16.1523H30.4352V11.5648H25.2621C21.7808 11.5648 18.9503 14.3954 18.9503 17.8767V18.4623H23.5378V17.8767C23.5378 16.9331 24.3186 16.1523 25.2621 16.1523Z" fill="white"/>
<path d="M23.5378 18.4623H18.9503V23.0497H23.5378V18.4623Z" fill="#16FF99"/>
</g>
</g>
</g>
<defs>
<linearGradient id="paint0_linear_7277_57922" x1="21" y1="0" x2="21" y2="61.4091" gradientUnits="userSpaceOnUse">
<stop stop-color="#08021E"/>
<stop offset="1" stop-color="#1F0777"/>
</linearGradient>
<clipPath id="clip0_7277_57922">
<rect width="42" height="42" fill="white"/>
</clipPath>
<clipPath id="clip1_7277_57922">
<rect width="32.5352" height="32.5352" fill="white" transform="translate(4.73239 4.73242)"/>
</clipPath>
<clipPath id="clip2_7277_57922">
<rect width="32.5352" height="32.5352" fill="white" transform="translate(4.73239 4.73242)"/>
</clipPath>
</defs>
</svg>

<svg xmlns="http://www.w3.org/2000/svg" width="42" height="42" fill="none"><g clip-path="url(#a)"><mask id="c" width="42" height="42" x="0" y="0" maskUnits="userSpaceOnUse" style="mask-type:alpha"><circle cx="21" cy="21" r="21" fill="url(#b)"/></mask><g mask="url(#c)"><circle cx="21" cy="21" r="21" fill="#34EDB3"/><circle cx="21" cy="21" r="18.2" fill="#fff"/></g><circle cx="21" cy="21" r="16.1" fill="#06061B"/><g clip-path="url(#d)"><g clip-path="url(#e)"><path fill="#00EF8B" d="M21 37.268c8.984 0 16.268-7.284 16.268-16.268 0-8.984-7.284-16.268-16.268-16.268-8.984 0-16.268 7.284-16.268 16.268 0 8.984 7.284 16.268 16.268 16.268Z"/><path fill="#fff" d="M28.125 18.462h-4.587v4.588h4.587v-4.588ZM18.95 24.774c0 .944-.78 1.724-1.724 1.724s-1.724-.78-1.724-1.724c0-.943.78-1.724 1.724-1.724h1.724v-4.588h-1.724a6.318 6.318 0 0 0-6.312 6.312 6.318 6.318 0 0 0 6.312 6.312 6.318 6.318 0 0 0 6.312-6.312V23.05H18.95v1.724Z"/><path fill="#fff" d="M25.262 16.152h5.173v-4.587h-5.173a6.318 6.318 0 0 0-6.312 6.312v.585h4.588v-.585c0-.944.78-1.725 1.724-1.725Z"/><path fill="#16FF99" d="M23.538 18.462H18.95v4.588h4.588v-4.588Z"/></g></g></g><defs><clipPath id="a"><path fill="#fff" d="M0 0h42v42H0z"/></clipPath><clipPath id="d"><path fill="#fff" d="M4.732 4.732h32.535v32.535H4.732z"/></clipPath><clipPath id="e"><path fill="#fff" d="M4.732 4.732h32.535v32.535H4.732z"/></clipPath><linearGradient id="b" x1="21" x2="21" y1="0" y2="61.409" gradientUnits="userSpaceOnUse"><stop stop-color="#08021E"/><stop offset="1" stop-color="#1F0777"/></linearGradient></defs></svg>
